public/images/case-studies/filemaker/featured3.svg

<svg width="66" height="64" viewBox="0 0 66 64" fill="none" xmlns="http://www.w3.org/2000/svg">
<path d="M35.5547 56.7596C35.5569 58.6792 36.3204 60.5195 37.6778 61.8769C39.0351 63.2343 40.8755 63.9978 42.7951 64H58.3103C60.2299 63.9978 62.0703 63.2343 63.4277 61.8769C64.785 60.5195 65.5486 58.6792 65.5508 56.7596V41.2443C65.5486 39.3247 64.785 37.4844 63.4277 36.127C62.0703 34.7696 60.2299 34.0061 58.3103 34.0039H42.7951C40.8755 34.0061 39.0351 34.7696 37.6778 36.127C36.3204 37.4844 35.5569 39.3247 35.5547 41.2443V56.7596ZM63.4821 56.7596C63.4804 58.1307 62.935 59.4452 61.9655 60.4147C60.996 61.3842 59.6815 61.9296 58.3103 61.9313H42.7951C41.424 61.9296 40.1095 61.3842 39.14 60.4147C38.1704 59.4452 37.625 58.1307 37.6234 56.7596V44.3474H63.4821V56.7596ZM37.6234 41.2443C37.625 39.8732 38.1704 38.5587 39.14 37.5892C40.1095 36.6196 41.424 36.0742 42.7951 36.0726H58.3103C59.6815 36.0742 60.996 36.6196 61.9655 37.5892C62.935 38.5587 63.4804 39.8732 63.4821 41.2443V42.2787H37.6234V41.2443Z" fill="#FF6B00"/>
<path d="M0 22.7556C0.00219009 24.6753 0.765721 26.5156 2.12309 27.873C3.48046 29.2304 5.32082 29.9939 7.24043 29.9961H22.7556C24.6753 29.9939 26.5156 29.2304 27.873 27.873C29.2304 26.5156 29.9939 24.6753 29.9961 22.7556V7.24043C29.9939 5.32082 29.2304 3.48046 27.873 2.12309C26.5156 0.765721 24.6753 0.00219009 22.7556 0H7.24043C5.32082 0.00219009 3.48046 0.765721 2.12309 2.12309C0.765721 3.48046 0.00219009 5.32082 0 7.24043V22.7556ZM27.9274 22.7556C27.9257 24.1268 27.3803 25.4413 26.4108 26.4108C25.4413 27.3803 24.1268 27.9257 22.7556 27.9274H7.24043C5.86931 27.9257 4.55481 27.3803 3.58528 26.4108C2.61574 25.4413 2.07034 24.1268 2.06869 22.7556V10.3435H27.9274V22.7556ZM2.06869 7.24043C2.07034 5.86931 2.61574 4.55481 3.58528 3.58528C4.55481 2.61574 5.86931 2.07034 7.24043 2.06869H22.7556C24.1268 2.07034 25.4413 2.61574 26.4108 3.58528C27.3803 4.55481 27.9257 5.86931 27.9274 7.24043V8.27478H2.06869V7.24043Z" fill="#FF6B00"/>
<path d="M42.4961 38.4416C42.3511 38.2978 42.1668 38.2001 41.9664 38.1609C41.766 38.1216 41.5585 38.1426 41.37 38.2212C41.1815 38.2997 41.0204 38.4323 40.9071 38.6022C40.7938 38.7721 40.7334 38.9717 40.7334 39.1759C40.7334 39.3802 40.7938 39.5798 40.9071 39.7497C41.0204 39.9196 41.1815 40.0522 41.37 40.1307C41.5585 40.2093 41.766 40.2303 41.9664 40.191C42.1668 40.1518 42.3511 40.0541 42.4961 39.9103C42.5896 39.8114 42.6634 39.6956 42.7133 39.569C42.7679 39.4452 42.7961 39.3113 42.7961 39.1759C42.7961 39.0406 42.7679 38.9067 42.7133 38.7829C42.6659 38.655 42.5918 38.5387 42.4961 38.4416Z" fill="#FF6B00"/>
<path d="M6.94047 4.43717C6.79548 4.29336 6.61116 4.19569 6.41075 4.15647C6.21034 4.11724 6.00281 4.13822 5.8143 4.21676C5.62579 4.29529 5.46475 4.42787 5.35146 4.59778C5.23818 4.7677 5.17773 4.96734 5.17773 5.17155C5.17773 5.37577 5.23818 5.57541 5.35146 5.74533C5.46475 5.91524 5.62579 6.04782 5.8143 6.12635C6.00281 6.20489 6.21034 6.22587 6.41075 6.18664C6.61116 6.14742 6.79548 6.04975 6.94047 5.90594C7.03397 5.80705 7.1077 5.69119 7.15768 5.56461C7.21228 5.44076 7.24048 5.3069 7.24048 5.17155C7.24048 5.03621 7.21228 4.90235 7.15768 4.7785C7.11021 4.65065 7.03618 4.53432 6.94047 4.43717Z" fill="#FF6B00"/>
<path d="M45.6928 38.1622C45.628 38.1734 45.5652 38.1943 45.5066 38.2242C45.4404 38.247 45.3775 38.2783 45.3194 38.3173C45.2657 38.3558 45.2143 38.3972 45.1653 38.4414C44.973 38.6375 44.8652 38.9012 44.8652 39.1758C44.8652 39.4505 44.973 39.7141 45.1653 39.9102L45.3194 40.0343C45.3775 40.0733 45.4404 40.1046 45.5066 40.1274C45.5652 40.1573 45.628 40.1782 45.6928 40.1895C45.7612 40.201 45.8303 40.2079 45.8996 40.2102C46.1051 40.2114 46.3062 40.1514 46.4774 40.0378C46.6486 39.9242 46.7821 39.7622 46.8609 39.5725C46.9397 39.3827 46.9602 39.1738 46.9198 38.9724C46.8794 38.7709 46.7799 38.5861 46.634 38.4414C46.5106 38.3234 46.3609 38.2365 46.1972 38.1879C46.0335 38.1393 45.8606 38.1305 45.6928 38.1622Z" fill="#FF6B00"/>
<path d="M10.1371 4.15826C10.0723 4.16952 10.0095 4.19044 9.95092 4.22032C9.88475 4.24312 9.82182 4.27441 9.7637 4.31341C9.71004 4.35185 9.65859 4.3933 9.60959 4.43753C9.41729 4.63361 9.30957 4.89728 9.30957 5.17192C9.30957 5.44655 9.41729 5.71023 9.60959 5.9063L9.7637 6.03043C9.82182 6.06943 9.88475 6.10071 9.95092 6.12351C10.0095 6.15339 10.0723 6.17432 10.1371 6.18558C10.2055 6.19713 10.2746 6.20404 10.344 6.20626C10.5494 6.20746 10.7506 6.14744 10.9218 6.03387C11.093 5.9203 11.2265 5.75831 11.3053 5.56857C11.384 5.37882 11.4045 5.16992 11.3641 4.96848C11.3237 4.76704 11.2242 4.58221 11.0784 4.43753C10.955 4.31949 10.8052 4.23257 10.6415 4.184C10.4778 4.13543 10.3049 4.1266 10.1371 4.15826Z" fill="#FF6B00"/>
<path d="M49.6433 38.2239C49.5167 38.2739 49.4009 38.3477 49.302 38.4412C49.1097 38.6372 49.002 38.9009 49.002 39.1755C49.002 39.4502 49.1097 39.7138 49.302 39.9099C49.4009 40.0034 49.5167 40.0772 49.6433 40.1271C49.7677 40.1801 49.9012 40.2083 50.0364 40.2099C50.2418 40.2111 50.443 40.1511 50.6142 40.0375C50.7854 39.9239 50.9189 39.7619 50.9976 39.5722C51.0764 39.3824 51.0969 39.1735 51.0565 38.9721C51.0161 38.7707 50.9166 38.5858 50.7707 38.4412C50.6253 38.2976 50.4406 38.2004 50.2399 38.1617C50.0393 38.1231 49.8317 38.1447 49.6433 38.2239Z" fill="#FF6B00"/>
<path d="M14.0886 4.22003C13.962 4.27002 13.8462 4.34374 13.7473 4.43725C13.555 4.63332 13.4473 4.897 13.4473 5.17163C13.4473 5.44627 13.555 5.70994 13.7473 5.90602C13.8462 5.99952 13.962 6.07325 14.0886 6.12323C14.213 6.17623 14.3465 6.20435 14.4817 6.20598C14.6871 6.20717 14.8883 6.14716 15.0595 6.03359C15.2307 5.92001 15.3642 5.75803 15.443 5.56828C15.5217 5.37854 15.5422 5.16963 15.5018 4.96819C15.4614 4.76676 15.3619 4.58192 15.2161 4.43725C15.0706 4.29372 14.8859 4.1965 14.6852 4.15784C14.4846 4.11918 14.277 4.14082 14.0886 4.22003Z" fill="#FF6B00"/>
<path d="M51.4503 27.6636L55.2081 30.9011L58.4456 27.1434L58.2253 24.1779L55.8287 26.953C54.916 22.5226 52.5045 18.5421 49.0003 15.6816C45.4961 12.8212 41.1133 11.2556 36.5898 11.2485V13.3172C40.5401 13.3229 44.3738 14.6567 47.4746 17.1041C50.5755 19.5515 52.7633 22.9704 53.6866 26.8113L51.23 24.6951L51.4503 27.6636Z" fill="#7F8284"/>
<path d="M17.592 38.2761L13.8342 35.0386L10.5967 38.7964L10.817 41.7618L13.2136 38.9867C14.1263 43.4171 16.5378 47.3976 20.042 50.2581C23.5462 53.1185 27.929 54.6841 32.4524 54.6912V52.6225C28.5021 52.6168 24.6685 51.2831 21.5676 48.8356C18.4668 46.3882 16.279 42.9693 15.3557 39.1284L17.8123 41.2447L17.592 38.2761Z" fill="#7F8284"/>
</svg>

<svg xmlns="http://www.w3.org/2000/svg" width="66" height="64" fill="none" xmlns:v="https://vecta.io/nano"><g fill="#ff6b00"><path d="M35.555 56.76a7.25 7.25 0 0 0 7.24 7.24H58.31a7.25 7.25 0 0 0 7.24-7.24V41.244a7.25 7.25 0 0 0-7.24-7.24H42.795a7.25 7.25 0 0 0-7.24 7.24V56.76zm27.927 0a5.18 5.18 0 0 1-5.172 5.172H42.795a5.18 5.18 0 0 1-5.172-5.172V44.347h25.859V56.76zM37.623 41.244c.002-1.371.547-2.686 1.517-3.655s2.284-1.515 3.655-1.517H58.31c1.371.002 2.686.547 3.655 1.517a5.18 5.18 0 0 1 1.517 3.655v1.034H37.623v-1.034zM0 22.756a7.25 7.25 0 0 0 7.24 7.24h15.515a7.25 7.25 0 0 0 7.24-7.24V7.24A7.25 7.25 0 0 0 22.756 0H7.24A7.25 7.25 0 0 0 0 7.24v15.515zm27.927 0a5.18 5.18 0 0 1-5.172 5.172H7.24a5.18 5.18 0 0 1-5.172-5.172V10.344h25.859v12.412zM2.069 7.24A5.18 5.18 0 0 1 7.24 2.069h15.515a5.18 5.18 0 0 1 5.172 5.172v1.034H2.069V7.24z"/><path d="M42.496 38.442a1.03 1.03 0 0 0-.53-.281 1.04 1.04 0 0 0-.596.06 1.03 1.03 0 0 0-.463.381c-.113.17-.174.369-.174.574a1.03 1.03 0 0 0 .637.955 1.03 1.03 0 0 0 .596.06 1.04 1.04 0 0 0 .53-.281 1.08 1.08 0 0 0 .217-.341 1.07 1.07 0 0 0 .083-.393.97.97 0 0 0-.083-.393.95.95 0 0 0-.217-.341zM6.94 4.437a1.04 1.04 0 0 0-.53-.281 1.03 1.03 0 0 0-1.059.441 1.04 1.04 0 0 0-.174.574 1.03 1.03 0 0 0 .174.574 1.04 1.04 0 0 0 .463.381c.189.079.396.1.596.06a1.04 1.04 0 0 0 .53-.281 1.08 1.08 0 0 0 .217-.341 1.07 1.07 0 0 0 .083-.393.97.97 0 0 0-.083-.393c-.047-.128-.122-.244-.217-.341zm38.753 33.725c-.065.011-.128.032-.186.062a.81.81 0 0 0-.187.093 1.77 1.77 0 0 0-.154.124 1.05 1.05 0 0 0 0 1.469l.154.124a.81.81 0 0 0 .187.093.66.66 0 0 0 .186.062 1.56 1.56 0 0 0 .207.021 1.04 1.04 0 0 0 .578-.172 1.03 1.03 0 0 0 .383-.465c.078-.189.099-.399.059-.6s-.14-.386-.286-.531c-.123-.118-.273-.205-.437-.254s-.337-.057-.504-.026zM10.137 4.158a.66.66 0 0 0-.186.062.81.81 0 0 0-.187.093 1.67 1.67 0 0 0-.154.124 1.05 1.05 0 0 0 0 1.469l.154.124a.81.81 0 0 0 .187.093.66.66 0 0 0 .186.062 1.54 1.54 0 0 0 .207.021 1.04 1.04 0 0 0 .962-.637c.079-.189.099-.399.059-.6s-.14-.386-.286-.531c-.123-.118-.273-.205-.437-.254s-.337-.057-.504-.026zm39.506 34.066a1.07 1.07 0 0 0-.341.217 1.05 1.05 0 0 0 0 1.469 1.08 1.08 0 0 0 .341.217 1.11 1.11 0 0 0 .393.083 1.04 1.04 0 0 0 .578-.172 1.03 1.03 0 0 0 .383-.465c.078-.189.099-.399.059-.6s-.14-.386-.286-.531a1.02 1.02 0 0 0-.531-.279c-.201-.038-.408-.017-.597.062zM14.089 4.22a1.07 1.07 0 0 0-.341.217 1.05 1.05 0 0 0 0 1.469c.099.094.215.167.341.217a1.11 1.11 0 0 0 .393.083 1.04 1.04 0 0 0 .578-.172 1.03 1.03 0 0 0 .383-.465c.078-.189.099-.399.059-.6s-.14-.386-.286-.531a1.02 1.02 0 0 0-.531-.279c-.201-.038-.408-.017-.597.062z"/></g><path d="M51.45 27.664l3.758 3.238 3.237-3.758-.22-2.965-2.397 2.775c-.913-4.43-3.324-8.411-6.828-11.271s-7.887-4.426-12.411-4.433v2.069a17.61 17.61 0 0 1 17.097 13.494l-2.457-2.116.22 2.968zM17.592 38.276l-3.758-3.237-3.237 3.758.22 2.965 2.397-2.775c.913 4.43 3.324 8.411 6.828 11.271s7.887 4.426 12.41 4.433v-2.069a17.61 17.61 0 0 1-17.097-13.494l2.457 2.116-.22-2.969z" fill="#7f8284"/></svg>
